deployments/warp_routes/wfragSOL/logo.svg

<svg xmlns="http://www.w3.org/2000/svg" width="2000" height="2000" fill="none" viewBox="0 0 2000 2000"><path fill="url(#a)" d="M999 1814c450.11 0 815-364.89 815-815 0-450.112-364.89-815-815-815-450.112 0-815 364.888-815 815 0 450.11 364.888 815 815 815"/><g filter="url(#b)"><path fill="url(#c)" d="M1483.74 544.256c-65.3-65.304-229.9-13.694-414.24 116.402 29.18-1.884 52.4-1.884 70.17-1.095 98.79-46.184 181.92-53.889 223.82-11.987 79.49 79.482-19.49 307.333-221.08 508.914-201.586 201.58-429.426 300.56-508.909 221.08-56.662-56.66-22.623-188.71 74.609-332.89-7.864-8.54-13.162-15.49-16.734-21.03-161.628 207.39-232.3 400.91-160.119 473.09 91.707 91.71 379.278-47.16 642.303-310.18 263.02-263.026 401.89-550.597 310.18-642.304"/></g><path fill="#0F011D" d="M769.059 1140.58c4.333-4.44 10.206-6.93 16.33-6.93h565.031c10.3 0 15.45 12.77 8.17 20.23l-111.65 114.42c-4.33 4.44-10.21 6.93-16.33 6.93H665.575c-10.293 0-15.447-12.76-8.166-20.23zm0-427.465c4.333-4.44 10.206-6.934 16.33-6.934h565.031c10.3 0 15.45 12.766 8.17 20.228L1246.94 840.83c-4.33 4.438-10.21 6.932-16.33 6.932H665.575c-10.293 0-15.447-12.764-8.166-20.226zm477.881 212.369c-4.33-4.439-10.21-6.933-16.33-6.933H665.575c-10.293 0-15.447 12.766-8.166 20.227l111.65 114.422c4.333 4.44 10.206 6.93 16.33 6.93h565.031c10.3 0 15.45-12.76 8.17-20.23z"/><path stroke="#000" stroke-linecap="round" stroke-miterlimit="10" stroke-width="20" d="M947 1707.47c-367.88-26.75-658.04-333.66-658.04-708.371S579.12 317.479 947 290.729" opacity=".5"/><path stroke="#000" stroke-linecap="round" stroke-miterlimit="10" stroke-width="20" d="M947 251.05C556.74 277.88 248.49 602.93 248.49 1000S556.75 1722.12 947 1748.95m103.49-40.48c367.88-26.75 658.04-333.66 658.04-708.37 0-374.711-290.16-681.621-658.04-708.371" opacity=".5"/><path stroke="#000" stroke-linecap="round" stroke-miterlimit="10" stroke-width="20" d="M1050.49 252.05C1440.75 278.88 1749 603.93 1749 1001s-308.26 722.12-698.51 748.95" opacity=".5"/><defs><linearGradient id="a" x1="422.71" x2="1575.29" y1="1575.29" y2="422.71" gradientUnits="userSpaceOnUse"><stop stop-color="#C993F3"/><stop offset=".06" stop-color="#BD95F3"/><stop offset=".17" stop-color="#9F9AF3"/><stop offset=".31" stop-color="#6DA4F4"/><stop offset=".48" stop-color="#2AB1F6"/><stop offset=".56" stop-color="#07B8F7"/><stop offset=".84" stop-color="#08E0CD"/><stop offset="1" stop-color="#09F4BA"/></linearGradient><linearGradient id="c" x1="1483" x2="526" y1="530.5" y2="1483.5" gradientUnits="userSpaceOnUse"><stop stop-opacity="0"/><stop offset=".15"/><stop offset=".75"/><stop offset="1" stop-opacity="0"/></linearGradient><filter id="b" width="1069" height="1069" x="473.003" y="485.998" color-interpolation-filters="sRGB" filterUnits="userSpaceOnUse"><feFlood flood-opacity="0" result="BackgroundImageFix"/><feColorMatrix in="SourceAlpha" result="hardAlpha" values="0 0 0 0 0 0 0 0 0 0 0 0 0 0 0 0 0 0 127 0"/><feOffset/><feGaussianBlur stdDeviation="15"/><feColorMatrix values="0 0 0 0 0 0 0 0 0 0 0 0 0 0 0 0 0 0 0.7 0"/><feBlend in2="BackgroundImageFix" result="effect1_dropShadow_17375_443"/><feBlend in="SourceGraphic" in2="effect1_dropShadow_17375_443" result="shape"/></filter></defs></svg>

<svg width="2000" height="2000" viewBox="0 0 2000 2000" fill="none" xmlns="http://www.w3.org/2000/svg">
<path d="M999 1814C1449.11 1814 1814 1449.11 1814 999C1814 548.888 1449.11 184 999 184C548.888 184 184 548.888 184 999C184 1449.11 548.888 1814 999 1814Z" fill="url(#paint0_linear_17375_443)"/>
<g filter="url(#filter0_d_17375_443)">
<path d="M1483.74 544.256C1418.44 478.952 1253.84 530.562 1069.5 660.658C1098.68 658.774 1121.9 658.774 1139.67 659.563C1238.46 613.379 1321.59 605.674 1363.49 647.576C1442.98 727.058 1344 954.909 1142.41 1156.49C940.824 1358.07 712.984 1457.05 633.501 1377.57C576.839 1320.91 610.878 1188.86 708.11 1044.68C700.246 1036.14 694.948 1029.19 691.376 1023.65C529.748 1231.04 459.076 1424.56 531.257 1496.74C622.964 1588.45 910.535 1449.58 1173.56 1186.56C1436.58 923.534 1575.45 635.963 1483.74 544.256Z" fill="url(#paint1_linear_17375_443)"/>
</g>
<path d="M769.059 1140.58C773.392 1136.14 779.265 1133.65 785.389 1133.65H1350.42C1360.72 1133.65 1365.87 1146.42 1358.59 1153.88L1246.94 1268.3C1242.61 1272.74 1236.73 1275.23 1230.61 1275.23H665.575C655.282 1275.23 650.128 1262.47 657.409 1255L769.059 1140.58Z" fill="#0F011D"/>
<path d="M769.059 713.115C773.392 708.675 779.265 706.181 785.389 706.181H1350.42C1360.72 706.181 1365.87 718.947 1358.59 726.409L1246.94 840.83C1242.61 845.268 1236.73 847.762 1230.61 847.762H665.575C655.282 847.762 650.128 834.998 657.409 827.536L769.059 713.115Z" fill="#0F011D"/>
<path d="M1246.94 925.484C1242.61 921.045 1236.73 918.551 1230.61 918.551H665.575C655.282 918.551 650.128 931.317 657.409 938.778L769.059 1053.2C773.392 1057.64 779.265 1060.13 785.389 1060.13H1350.42C1360.72 1060.13 1365.87 1047.37 1358.59 1039.9L1246.94 925.484Z" fill="#0F011D"/>
<path opacity="0.5" d="M947 1707.47C579.12 1680.72 288.96 1373.81 288.96 999.099C288.96 624.389 579.12 317.479 947 290.729" stroke="black" stroke-width="20" stroke-miterlimit="10" stroke-linecap="round"/>
<path opacity="0.5" d="M947 251.05C556.74 277.88 248.49 602.93 248.49 1000C248.49 1397.07 556.75 1722.12 947 1748.95" stroke="black" stroke-width="20" stroke-miterlimit="10" stroke-linecap="round"/>
<path opacity="0.5" d="M1050.49 1708.47C1418.37 1681.72 1708.53 1374.81 1708.53 1000.1C1708.53 625.389 1418.37 318.479 1050.49 291.729" stroke="black" stroke-width="20" stroke-miterlimit="10" stroke-linecap="round"/>
<path opacity="0.5" d="M1050.49 252.05C1440.75 278.88 1749 603.93 1749 1001C1749 1398.07 1440.74 1723.12 1050.49 1749.95" stroke="black" stroke-width="20" stroke-miterlimit="10" stroke-linecap="round"/>
<defs>
<filter id="filter0_d_17375_443" x="473.003" y="485.998" width="1069" height="1069" filterUnits="userSpaceOnUse" color-interpolation-filters="sRGB">
<feFlood flood-opacity="0" result="BackgroundImageFix"/>
<feColorMatrix in="SourceAlpha" type="matrix" values="0 0 0 0 0 0 0 0 0 0 0 0 0 0 0 0 0 0 127 0" result="hardAlpha"/>
<feOffset/>
<feGaussianBlur stdDeviation="15"/>
<feColorMatrix type="matrix" values="0 0 0 0 0 0 0 0 0 0 0 0 0 0 0 0 0 0 0.7 0"/>
<feBlend mode="normal" in2="BackgroundImageFix" result="effect1_dropShadow_17375_443"/>
<feBlend mode="normal" in="SourceGraphic" in2="effect1_dropShadow_17375_443" result="shape"/>
</filter>
<linearGradient id="paint0_linear_17375_443" x1="422.71" y1="1575.29" x2="1575.29" y2="422.71" gradientUnits="userSpaceOnUse">
<stop stop-color="#C993F3"/>
<stop offset="0.06" stop-color="#BD95F3"/>
<stop offset="0.17" stop-color="#9F9AF3"/>
<stop offset="0.31" stop-color="#6DA4F4"/>
<stop offset="0.48" stop-color="#2AB1F6"/>
<stop offset="0.56" stop-color="#07B8F7"/>
<stop offset="0.84" stop-color="#08E0CD"/>
<stop offset="1" stop-color="#09F4BA"/>
</linearGradient>
<linearGradient id="paint1_linear_17375_443" x1="1483" y1="530.5" x2="526" y2="1483.5" gradientUnits="userSpaceOnUse">
<stop stop-opacity="0"/>
<stop offset="0.15"/>
<stop offset="0.75"/>
<stop offset="1" stop-opacity="0"/>
</linearGradient>
</defs>
</svg>
